X:1
T:William Billings
T:Wareham
%%score [ 1 2 3 4 ]
L:1/8
M:4/4
K:C
V:1 treble nm="Soprano" snm="S"
V:2 alto nm="Alto" snm="A"
V:3 treble-8 nm="Tenor" snm="T"
V:4 bass nm="Bass" snm="B"
V:1
 z4 A4 | c2 B2 A2 B2 | (c3 d e2) e2 | (dc) B2 c2 c2 | (B3 c d2) e2 | A2 A2 B2 A2 | B2 B2 c2 (BA) | %7
w: |||||||
 B2 B2 A2 e2 | d4 e4 | (fe)(dc) (BA G2) | A8 | z8 | z8 | z8 | z4 z2 A2 | e2 (ed) c2 c2 | %16
w: |||||||I|can- not * live if|
 B2 B2 c2 (BA) | B2 c2 e2 d2 | c6 e2 | (d3 c B2) A2 | (B>cB>A B2) A2 | A2 e2 e2 d2 | (e3 f ed) c2 | %23
w: thou re- move for *|thou art all in|all in|all * * for|thou * * * * art|all in all for|thou * * * art|
 B2 B2 B2 (cd) | (e>fe>d ed)(cB) | A2 c2 c2 z2 | B4 A2 B2 | c2 (BA) (GA)(Bc) | B6 B2 | %29
w: all in all for *|thou * * * * * art *|all in all||||
 (c3 B A2) G2 | A2 c2 c2 z2 | c6 z2 | B6 z2 | c8 | z4 c4 | (c3 d e2) (ed) | c2 A2 A4 |] %37
w: ||||||||
V:2
 z4 E4 | E2 E2 E2 G2 | G4 (G2 ^G2) | A2 (GF) E2 G2 | G6 (GF) | E2 (EF) G2 A2 | G2 F2 E2 F2 | %7
w: |||||||
 G2 (GF) E2 E2 | F4 E4 | F2 F2 E2 E2 | E8 | z8 | z8 | z4 z2 E2 | G2 G2 G2 A2 | G2 E2 A2 A2 | %16
w: thou art * all in|all for|thou art all in|all|||I|can- not live if|thou re- move for|
 (G>AG>F E2) F2 | G2 A2 A2 z2 | G2 G2 A4- | A4 z4 | G2 G2 G2 z2 | (A>BA>G A2) (GE) | E2 A2 A2 z2 | %23
w: thou * * * * art|all in all|all in all||all in all|thou * * * * art *|all in all|
 G2 G2 G2 z2 | (G>AG>F E2) E2 | E2 A2 A2 z2 | G4 A2 G2 | G2 F2 E2 E2 | E6 F2 | (G>AG>F) E2 E2 | %30
w: all in all|thou * * * * art|all in all|||||
 E2 A2 A2 z2 | A6 z2 | G6 z2 | A8 | z4 A4 | (G4 A2) (GF) | E2 E2 E4 |] %37
w: |||||||
V:3
 z4 A4 | A2 B2 c2 d2 | (e3 d c2) B2 | A2 B2 c2 e2 | (d3 c B2) B2 | c2 c2 d2 d2 | e2 f2 g2 f2 | %7
w: My|God my life my|Love * * to|thee to thee I|call * * I|can- not live if|thou re- move for|
 (e3 d c3 B | A3 B c2) e2 | (d2 c2) B4 | A8 | z8 | z4 z2 E2 | A2 (AB) c2 c2 | B2 (Bc) d2 d2 | %15
w: tho * * *|* * u art|all * in|all||I|cann- not * live I|can- not * live I|
 c2 (cd) e2 f2 | (ed)(ef) g2 f2 | (e>fe>d c2) d2 | e2 e2 e2 z2 | (f>gf>e d2) c2 | d2 d2 d2 z2 | %21
w: can- not * live if|thou * re * move for|thou * * * * art|all in all|thou * * * * art|all in all|
 (e>fe>d c2) B2 | c2 c2 c2 z2 | (d>ed>c B2) A2 | B2 B2 B2 z2 | A2 e2 e2 z2 | e4 (AB)(cd) | %27
w: thou * * * * art|all in all|thou * * * * art|all in all|all in all|I can * not *|
 e2 d2 (cd)(ef) | g6 f2 | (e>fe>d c2) B2 | A2 e2 e2 z2 | e6 z2 | e6 z2 | e8 | z4 e4 | %35
w: live if thou * re *|move for|thou * * * * art|all in all|all|in|all|for|
 (e>fe>d c2) B2 | A2 A2 A4 |] %37
w: thou * * * * art|all in all|
V:4
 z4 [A,,A,]4 | [A,,A,]2 E,2 [A,,A,]2 [G,,G,]2 | ([C,C]3 [B,,B,] [A,,A,]2) E,2 | %3
w: |||
 F,2 (E,D,) C,2 C,2 | G,6 E,2 | A,2 A,2 G,2 F,2 | E,2 D,2 C,2 D,2 | E,2 E,2 A,,2 A,,2 | D,4 C,4 | %9
w: ||||||
 F,2 D,2 E,2 E,2 | A,,8 | z4 A,,4 | E,2 E,D, C,2 C,2 | D,2 D,2 E,2 A,2 | (G,>A,G,>F, G,2) D,2 | %15
w: ||I|cann- not * live if|thou re- move for|thou * * * * art|
 C,2 [A,,A,]2 [A,,A,]2 z2 | (E,>F,E,>D, C,2) D,2 | E,2 [A,,A,]2 [A,,A,]2 z2 | (C>DC>B, A,2) A,2 | %19
w: all in all|thou * * * * art|all in all|thou * * * * art|
 D,2 D,2 D,2 z2 | (G,>A,G,>F, G,2) E,2 | [A,,A,]2 [A,,A,]2 [A,,A,]2 z2 | (A,>B,A,>^G, A,2) E,2 | %23
w: all in all|thour * * * * art|all in all|thou * * * * art|
 G,2 G,2 G,2 z2 | E,2 E,2 E,2 z2 | A,,2 [A,,A,]2 [A,,A,]2 z2 | E,4 F,2 (E,D,) | %27
w: all in all|all in all|all in all||
 C,2 D,2 (E,F,)(G,F,) | E,6 D,2 | (C,>D,C,>D, E,2) E,2 | A,,2 [A,,A,]2 [A,,A,]2 z2 | [A,,A,]6 z2 | %32
w: |||||
 [A,,A,]6 z2 | [A,,A,]8 | z4 [A,,A,]4 | ([C,C]3 [B,,B,] [A,,A,]2) E,2 | A,,2 A,,2 A,,4 |] %37
w: |||||

